X:3
T:Turning of the Season (The) - Harmony
C:Robin Bullock
M:3/4
L:1/4
K:G
%%staves{RH1 RH2 RH3}
V:RH2 clef=treble name="Harmony"
[V:RH2] |:z|G3|B3/2 A/2 G|
[V:RH2] |E2 c/2d/2|e2 c|d3|e2 d
[V:RH2] |g3/2 d/2 e/2g/2|(g/2f/2) d2|G3|B3/2 A/2 G
[V:RH2] |e2 a|g2-g/2f/2|d3
[V:RH2] |e/2d/2 c3/2 d/2|d a3/2 g/2|e2 g/2e/2||
[V:RH2] |e d B|d/2e/2 f3/2 g/2|g e c/2A/2|A G/2A/2 (A/2B/2)
[V:RH2] |G/2A/2 =F E|G C/2D/2 E|A c3/2 G/2|F d g/2e/2
[V:RH2] |e d g|d'3|c'2 g|f3
[V:RH2] |=f3|e3/2 f/2 {a}g/2f/2|d3-|d2:||

%%scale 1.4
